images_sukapura_svg/cmd/sc_pasteonlyvalue.svg

<svg viewBox="0 0 16 16" xmlns="http://www.w3.org/2000/svg">




     /&amp;amp;gt;
 <path d="m2.5 2.5c-.554 0-1 .446-1 1v11c0 .554.446 1 1 1h11c.554 0 1-.446 1-1v-11c0-.554-.460187-1.1245722-1-1h-1v1c0 .554-.446 1-1 1h-7c-.554 0-.9942233-.4460301-1-1v-1z" fill="#e2b96c" stroke="#bc974c"/><path d="m8 .5c-1.1045695 0-2 .8954305-2 2h-2.5v2h4.5 4.5v-2h-2.5c0-1.1045695-.8954305-2-2-2zm0 1c.5522847 0 1 .4477153 1 1s-.4477153 1-1 1-1-.4477153-1-1c.0002944-.03328.00225-.066524.00586-.099609.0511359-.510819.4807684-.8999361.99414-.900391z" fill="#797979" stroke="#757575"/><g transform="translate(-8 -1)"><path d="m4 3c-.554 0-1 .446-1 1v10c0 .554.446 1 1 1h8c.554 0 1-.446 1-1v-10c0-.554-.446-1-1-1z" fill="#808080" transform="translate(8 1)"/><path d="m12 5v10h8v-10z" fill="#fdf9f3"/><path d="m14.480583 13h1.247572v-3.1684206c0-.1383459.0049-.2827068.01456-.4330828l-.839805.6721804c-.05502.0421-.110033.06767-.165049.07669-.05502.009-.106796.009-.15534 0-.04854-.009-.09223-.02406-.131068-.04511-.0356-.02406-.06311-.04812-.08252-.07218l-.368933-.4691744 1.936893-1.5609022h1.063107v4.9999996h1v1h-3.519417z" fill="#808080"/></g></svg>

<?xml version="1.0" encoding="UTF-8" standalone="no"?>
<svg
   xmlns:dc="http://purl.org/dc/elements/1.1/"
   xmlns:cc="http://creativecommons.org/ns#"
   xmlns:rdf="http://www.w3.org/1999/02/22-rdf-syntax-ns#"
   xmlns:svg="http://www.w3.org/2000/svg"
   xmlns="http://www.w3.org/2000/svg"
   xmlns:sodipodi="http://sodipodi.sourceforge.net/DTD/sodipodi-0.dtd"
   xmlns:inkscape="http://www.inkscape.org/namespaces/inkscape"
   viewBox="0 0 16 16"
   version="1.1"
   id="svg6"
   sodipodi:docname="sc_pasteonlyvalue.svg"
   inkscape:version="0.92.3 (unknown)"
   inkscape:export-filename="/home/rizmut/Dokumen/Rizmut/Github/libreoffice-style-colibrex/images_colibrex/cmd/sc_pasteonlyvalue.png"
   inkscape:export-xdpi="96"
   inkscape:export-ydpi="96"><metadata
   id="metadata12">
  <rdf:RDF>
    <cc:Work
       rdf:about="">
      <dc:format>image/svg+xml</dc:format>
      <dc:type
         rdf:resource="http://purl.org/dc/dcmitype/StillImage" />
      <dc:title></dc:title>
    </cc:Work>
  </rdf:RDF>
</metadata>
<defs
   id="defs10" />
<sodipodi:namedview
   pagecolor="#ffffff"
   bordercolor="#666666"
   borderopacity="1"
   objecttolerance="10"
   gridtolerance="10"
   guidetolerance="10"
   inkscape:pageopacity="0"
   inkscape:pageshadow="2"
   inkscape:window-width="1366"
   inkscape:window-height="706"
   id="namedview8"
   showgrid="true"
   inkscape:snap-smooth-nodes="true"
   inkscape:zoom="20.85965"
   inkscape:cx="9.2298722"
   inkscape:cy="6.0221769"
   inkscape:window-x="0"
   inkscape:window-y="0"
   inkscape:window-maximized="1"
   inkscape:current-layer="g896">
  <inkscape:grid
     type="xygrid"
     id="grid822"
     spacingx="0.5"
     spacingy="0.5"
     empspacing="2" />
</sodipodi:namedview>




     /&amp;gt;
 <path
   d="m 2.5,2.5 c -0.554,0 -1,0.446 -1,1 v 11 c 0,0.554 0.446,1 1,1 h 11 c 0.554,0 1,-0.446 1,-1 v -11 c 0,-0.554 -0.460187,-1.1245722 -1,-1 h -1 v 1 c 0,0.554 -0.446,1 -1,1 h -7 c -0.554,0 -0.9942233,-0.4460301 -1,-1 v -1 z"
   id="path2"
   style="fill:#e2b96c;stroke:#bc974c;stroke-opacity:1;fill-opacity:1"
   inkscape:connector-curvature="0"
   sodipodi:nodetypes="sssssssscsssscs" />
<path
   d="m 8,0.5 c -1.1045695,0 -2,0.8954305 -2,2 H 3.5 v 2 H 8 12.5 v -2 H 10 c 0,-1.1045695 -0.8954305,-2 -2,-2 z m 0,1 c 0.5522847,0 1,0.4477153 1,1 0,0.5522847 -0.4477153,1 -1,1 -0.5522847,0 -1,-0.4477153 -1,-1 2.944e-4,-0.03328 0.00225,-0.066524 0.00586,-0.099609 C 7.0569959,1.889572 7.4866284,1.5004549 8,1.5 Z"
   id="path4"
   style="fill:#797979;fill-opacity:1;stroke:#757575;stroke-opacity:1"
   inkscape:connector-curvature="0"
   sodipodi:nodetypes="scccccccscssccc" />
<g
   transform="translate(-8,-1)"
   id="g10">
  <g
     id="g896">
    <path
       style="opacity:1;fill:#808080;fill-opacity:1;stroke:none;stroke-width:2;stroke-linecap:round;stroke-linejoin:round;stroke-miterlimit:4;stroke-dasharray:none;stroke-opacity:1"
       d="M 4,3 C 3.446,3 3,3.446 3,4 v 10 c 0,0.554 0.446,1 1,1 h 8 c 0.554,0 1,-0.446 1,-1 V 4 C 13,3.446 12.554,3 12,3 Z"
       transform="translate(8,1)"
       id="rect816"
       inkscape:connector-curvature="0" />
    <path
       stroke-miterlimit="4"
       id="rect818"
       d="m 12,5 v 10 h 8 V 5 Z"
       inkscape:connector-curvature="0"
       style="opacity:1;fill:#fdf9f3;fill-opacity:1;stroke:none;stroke-width:2;stroke-linecap:round;stroke-linejoin:round;stroke-miterlimit:4;stroke-dasharray:none;stroke-opacity:1" />
    <path
       style="fill:#808080;fill-opacity:1"
       inkscape:connector-curvature="0"
       d="m 14.480583,13 h 1.247572 V 9.8315794 c 0,-0.1383459 0.0049,-0.2827068 0.01456,-0.4330828 l -0.839805,0.6721804 c -0.05502,0.0421 -0.110033,0.06767 -0.165049,0.07669 -0.05502,0.009 -0.106796,0.009 -0.15534,0 -0.04854,-0.009 -0.09223,-0.02406 -0.131068,-0.04511 -0.0356,-0.02406 -0.06311,-0.04812 -0.08252,-0.07218 L 14,9.5609026 15.936893,8.0000004 H 17 V 13 h 1 v 1 h -3.519417 z"
       id="path16" />
  </g>
</g>
</svg>
